icon-themes/breeze_svg/cmd/ru/sc_bold.svg

<svg viewBox="0 0 16 16" xmlns="http://www.w3.org/2000/svg"><path d="m.2578125 2 2.2148437 4.4238281c.1648746.3141995.3338164.5664122.5058594.7597657.172043.1933534.3793193.3461948.6230469.4589843-.3369176.120846-.6130712.2995677-.828125.5332031-.2078853.2255791-.3937192.5146593-.5585937.8691407l-2.2148438 4.9550781h1.8710938c.2437275 0 .4555541-.020262.6347656-.060547.1792114-.040282.3319052-.101077.4609375-.181641.1362007-.08862.2551103-.197269.3554687-.326171.1003585-.136959.1906783-.293463.2695313-.470703l1.2460937-3.226563c.1146953-.2900302.2693423-.5036663.4628906-.640625.1935484-.1369587.4151196-.2050781.6660157-.2050781h.6992187v5.1113281h2.6464844v-5.1113281h.699219c.250896 0 .472467.0681194.666015.2050781.200717.1369587.355364.3469325.462891.6289062l1.257813 3.2499998c.157706.354482.362385.615972.613281.785156.250896.161128.612819.242188 1.085937.242188h1.902344l-2.226562-4.9550781c-.164875-.3544814-.353306-.6435616-.56836-.8691407-.207885-.2336354-.481441-.4123571-.818359-.5332031.243727-.1127895.452957-.2656309.625-.4589843.172043-.1933535.339031-.4455662.503906-.7597657l2.214844-4.4238281h-2.150391c-.250896 0-.479615.0717817-.6875.2167969-.200717.1450151-.362511.3440017-.484375.59375l-1.505859 3.359375c-.107527.2497482-.243329.4338416-.408203.5546875-.164874.1127895-.383849.1699218-.6562504.1699218h-.5253906v-4.8945312h-2.6464844v4.8945312h-.5585937c-.2724014.0000001-.484228-.0571323-.6347657-.1699218-.1505376-.1208459-.281789-.3049393-.3964843-.5546875l-1.4960938-3.3730469c-.1218638-.2497483-.2862553-.4431195-.4941406-.5800781-.2007168-.1450152-.4268383-.2167969-.6777344-.2167969z" fill="#4d4d4d"/></svg>

<svg xmlns="http://www.w3.org/2000/svg" viewBox="0 0 16 16">
  <path
     d="M 0.2578125 2 L 2.4726562 6.4238281 C 2.6375308 6.7380276 2.8064726 6.9902403 2.9785156 7.1835938 C 3.1505586 7.3769472 3.3578349 7.5297886 3.6015625 7.6425781 C 3.2646449 7.7634241 2.9884913 7.9421458 2.7734375 8.1757812 C 2.5655522 8.4013603 2.3797183 8.6904405 2.2148438 9.0449219 L 0 14 L 1.8710938 14 C 2.1148213 14 2.3266479 13.979738 2.5058594 13.939453 C 2.6850708 13.899171 2.8377646 13.838376 2.9667969 13.757812 C 3.1029976 13.669192 3.2219072 13.560543 3.3222656 13.431641 C 3.4226241 13.294682 3.5129439 13.138178 3.5917969 12.960938 L 4.8378906 9.734375 C 4.9525859 9.4443448 5.1072329 9.2307087 5.3007812 9.09375 C 5.4943296 8.9567913 5.7159008 8.8886719 5.9667969 8.8886719 L 6.6660156 8.8886719 L 6.6660156 14 L 9.3125 14 L 9.3125 8.8886719 L 10.011719 8.8886719 C 10.262615 8.8886719 10.484186 8.9567913 10.677734 9.09375 C 10.878451 9.2307087 11.033098 9.4406825 11.140625 9.7226562 L 12.398438 12.972656 C 12.556144 13.327138 12.760823 13.588628 13.011719 13.757812 C 13.262615 13.91894 13.624538 14 14.097656 14 L 16 14 L 13.773438 9.0449219 C 13.608563 8.6904405 13.420132 8.4013603 13.205078 8.1757812 C 12.997193 7.9421458 12.723637 7.7634241 12.386719 7.6425781 C 12.630446 7.5297886 12.839676 7.3769472 13.011719 7.1835938 C 13.183762 6.9902403 13.35075 6.7380276 13.515625 6.4238281 L 15.730469 2 L 13.580078 2 C 13.329182 2 13.100463 2.0717817 12.892578 2.2167969 C 12.691861 2.361812 12.530067 2.5607986 12.408203 2.8105469 L 10.902344 6.1699219 C 10.794817 6.4196701 10.659015 6.6037635 10.494141 6.7246094 C 10.329267 6.8373989 10.110292 6.8945312 9.8378906 6.8945312 L 9.3125 6.8945312 L 9.3125 2 L 6.6660156 2 L 6.6660156 6.8945312 L 6.1074219 6.8945312 C 5.8350205 6.8945313 5.6231939 6.8373989 5.4726562 6.7246094 C 5.3221186 6.6037635 5.1908672 6.4196701 5.0761719 6.1699219 L 3.5800781 2.796875 C 3.4582143 2.5471267 3.2938228 2.3537555 3.0859375 2.2167969 C 2.8852207 2.0717817 2.6590992 2 2.4082031 2 L 0.2578125 2 z "
     style="fill:#4d4d4d"
     />
</svg>
